symbols/web/switch_left/materialsymbolsrounded/switch_left_wght100grad200_40px.svg

<svg xmlns="http://www.w3.org/2000/svg" height="40" width="40"><path d="M15.208 25.375V14.583L9.792 20Zm-.75 1.875-6.166-6.208q-.209-.209-.334-.48-.125-.27-.125-.562 0-.292.125-.562.125-.271.334-.521l6.166-6.167q.709-.75 1.646-.375.938.375.938 1.375v12.458q0 1.042-.938 1.417-.937.375-1.646-.375Zm11.084 0q-.709.75-1.625.375Q23 27.25 23 26.208V13.75q0-1 .917-1.375.916-.375 1.625.375l6.166 6.167q.209.25.354.521.146.27.146.562 0 .292-.146.562-.145.271-.354.48Z"/></svg>

<svg xmlns="http://www.w3.org/2000/svg" height="40" width="40"><path d="M15.208 25.375V14.583L9.792 20ZM14.458 27.25 8.292 21.042Q8.083 20.833 7.958 20.562Q7.833 20.292 7.833 20Q7.833 19.708 7.958 19.438Q8.083 19.167 8.292 18.917L14.458 12.75Q15.167 12 16.104 12.375Q17.042 12.75 17.042 13.75V26.208Q17.042 27.25 16.104 27.625Q15.167 28 14.458 27.25ZM25.542 27.25Q24.833 28 23.917 27.625Q23 27.25 23 26.208V13.75Q23 12.75 23.917 12.375Q24.833 12 25.542 12.75L31.708 18.917Q31.917 19.167 32.062 19.438Q32.208 19.708 32.208 20Q32.208 20.292 32.062 20.562Q31.917 20.833 31.708 21.042Z"/></svg>
